Crule-dark/status/22/uget-tray-error.svg

<svg width="22" height="22" version="1.1" xmlns="http://www.w3.org/2000/svg">
 <defs>
  <style id="current-color-scheme" type="text/css"/>
 </defs>
 <path d="m10.125 4s-2.327 0.017-2.625 2.625v6.375h-2v-6h-1v5.75c0 1.75 1.75 1.25 1.75 1.25h1.25v1.375c0 2.625 2.625 2.625 2.625 2.625h4.75c2.625 0 2.625-2.625 2.625-2.625v-5.375h-3v2h1l-3 4-3-4h1v-5h4v1h3v-1.375s0-2.625-2.625-2.625z" color="#5294e2" fill="#f55"/>
</svg>

<svg width="22" height="22" xmlns="http://www.w3.org/2000/svg">
 <defs>
  <style id="current-color-scheme" type="text/css">
   .ColorScheme-Text { color:#ffffff; } .ColorScheme-Highlight { color:#4285f4; }
  </style>
 </defs>
<path d="M10.125 4S7.798 4.017 7.5 6.625V13h-2V7h-1v5.75C4.5 14.5 6.25 14 6.25 14H7.5v1.375C7.5 18 10.125 18 10.125 18h4.75c2.625 0 2.625-2.625 2.625-2.625V10h-3v2h1l-3 4-3-4h1V7h4v1h3V6.625S17.5 4 14.875 4z" fill="#f55"/>
</svg>
